src/ui/Svg/optimized/close-square.svg

<?xml version="1.0" standalone="no"?>
<!DOCTYPE svg PUBLIC "-//W3C//DTD SVG 1.1//EN" "http://www.w3.org/Graphics/SVG/1.1/DTD/svg11.dtd">
<svg class="icon" version="1.1" viewBox="0 0 1024 1024" fill="currentColor" aria-hidden="true">
  <path d="M912.00000031 32a79.99999969 79.99999969 0 0 1 79.99999969 79.99999969v800.00000062a79.99999969 79.99999969 0 0 1-79.99999969 79.99999969H111.99999969a79.99999969 79.99999969 0 0 1-79.99999969-79.99999969V111.99999969a79.99999969 79.99999969 0 0 1 79.99999969-79.99999969h800.00000062zM368 272L272 368 416 512 272 656 368 752l144-144 144 144 96-96-144-144L752 368 656 272 512 416 368 272z"/>
</svg>

<svg xmlns="http://www.w3.org/2000/svg" class="icon" viewBox="0 0 1024 1024" fill="currentColor" aria-hidden="true">
  <path d="M912 32a80 80 0 0180 80v800a80 80 0 01-80 80H112a80 80 0 01-80-80V112a80 80 0 0180-80h800zM368 272l-96 96 144 144-144 144 96 96 144-144 144 144 96-96-144-144 144-144-96-96-144 144-144-144z"/>
</svg>
